src/icons/glyph/SalesQuotationIcon.svg

<svg xmlns="http://www.w3.org/2000/svg" width="24" height="24" fill="currentColor" viewBox="0 0 24 24">
  <path d="m15 11-2 3h2l2-3V7h-4v4h2Zm-6.016 0L7 14h1.984L11 11V7H7v4h1.984Z"/>
  <path fill-rule="evenodd" d="m22 22-4-4H4c-1.1 0-2-.9-2-2V4c0-1.1.9-2 2-2h16c1.1 0 1.99.9 1.99 2L22 22ZM19.99 4H4v12h14.828l1.17 1.169L19.99 4Z" clip-rule="evenodd"/>
</svg>

<svg width="24" height="24" viewBox="0 0 24 24" fill="none" xmlns="http://www.w3.org/2000/svg">
<path d="M15 11L13 14H15L17 11V7H13V11H15Z" fill="currentColor"/>
<path d="M8.98438 11L7 14H8.98438L11 11V7H7V11H8.98438Z" fill="currentColor"/>
<path fill-rule="evenodd" clip-rule="evenodd" d="M22 22L18 18H4C2.9 18 2 17.1 2 16V4C2 2.9 2.9 2 4 2H20C21.1 2 21.99 2.9 21.99 4L22 22ZM19.99 4H4V16H18.8284L19.9973 17.1689L19.99 4Z" fill="currentColor"/>
</svg>
